X:1
T:Title
%%score { ( 1 3 ) | 2 }
L:1/8
M:4/4
K:A
V:1 treble nm="Grand Piano"
V:3 treble 
V:2 bass 
V:1
 z4 z2[Q:1/4=100] z [CE] | [CE]>[CA] [CA]>[DB] [Ec]>[CA] [Fd]>[DB] | [Ec]4 [CA]2 [CA]>[EG] | %3
 F>F F>F [^DB]>[DB] [DB]>[Dc] | [EB]6 z [DE] | [CE]>[CA] [CA]>[DB] [Ec]>[CA] [Fd]>[DB] | %6
 [Ec]4 [CA]2 [EA]>F | E>c c>c B>F G>B |[M:3/4] [CA]6 |[M:1/4] [CA]>[CA] |[M:4/4] G4 z4 | A4 z4 | %12
 [^DB]>[DF] [DF]>[DF] [DG]>[DA] [DB]>[Dc] | B6 c>d | e4 z4 | %15
[M:9/8] z z/ D/D- D/D/ [Fd]2- [Fd][EG]>F |[M:4/4] E>c c>c B>F G>B |[M:3/4] [CA]6 |] %18
V:2
 z4 z2 z [A,,A,] | [A,,A,]>[A,,E,] [A,,E,]>[A,,A,] [A,,A,]>[A,,A,] [A,,A,]>[A,,A,] | %2
 [A,,A,]4 [A,,E,]2 [A,,A,]>[C,A,] | %3
 [D,A,D]>[D,A,D] [D,A,D]>[D,A,D] [B,,A,]>[B,,F,] [B,,F,]>[B,,A,] | [E,G,]6 z [E,G,] | %5
 [A,,A,]>[A,,E,] [A,,E,]>[A,,A,] [A,,A,]>[A,,A,] [A,,A,]>[A,,A,] | %6
 [A,,A,]4 [A,,E,]2 [C,A,]>[D,A,D] | [E,A,C]>[E,A,E] [E,A,E]>[E,A,E] [E,G,D]>[E,G,D] [E,B,D]>[E,D] | %8
[M:3/4] [A,,E,]6 |[M:1/4] [A,,E,]>[A,,E,] | %10
[M:4/4] [B,,E,]>[B,,E,] [B,,E,]>[B,,E,] [E,G,E]2 [E,G,E]>[E,B,D] | %11
 [A,,A,]>[A,,E,] [A,,E,]>[A,,E,] [A,,A,]2 [A,,A,]>[A,,A,] | %12
 [B,,F,]>[B,,B,] [B,,B,]>[B,,B,] [B,,B,]>[B,,B,] [B,,F,]>[B,,A,] | [E,G,E]6 [A,E]>[A,B,E] | %14
 [A,CE]>[A,C] [A,C]>[A,C] [A,C]2 [A,,A,]>[C,A,] | %15
[M:9/8] [D,A,D]>[D,A,][D,A,]- [D,A,]/[D,A,]/ [B,,B,]2- [B,,B,][C,A,]>[D,A,D] | %16
[M:4/4] [E,A,C]>[E,A,E] [E,A,E]>[E,A,E] [E,G,D]>[E,G,D] [E,B,D]>[E,D] |[M:3/4] [A,,E,]6 |] %18
V:3
 x8 | x8 | x8 | x8 | x8 | x8 | x8 | x8 |[M:3/4] x6 |[M:1/4] x2 |[M:4/4] D>D D>D d2 d>G | %11
 C>C C>C [Ec]2 [Ec]>[Ec] | x8 | x8 | z z/ E/ E>E A2 [CA]>[EG] |[M:9/8] .F6 z3 |[M:4/4] x8 | %17
[M:3/4] x6 |] %18

